svg/remove-node.svg

<?xml version="1.0" encoding="UTF-8"?>
<svg xmlns="http://www.w3.org/2000/svg" xmlns:xlink="http://www.w3.org/1999/xlink" width="32" height="32" viewBox="0 0 32 32">
<path fill-rule="nonzero" fill="rgb(0%, 0%, 0%)" fill-opacity="1" d="M 12.160156 0 C 8.980469 0.00390625 6.402344 2.582031 6.398438 5.761719 C 6.398438 8.71875 8.644531 11.164062 11.519531 11.484375 L 11.519531 28.800781 L 19.839844 28.800781 L 19.839844 30.71875 L 24.960938 30.71875 L 24.960938 25.601562 L 19.839844 25.601562 L 19.839844 27.519531 L 12.800781 27.519531 L 12.800781 21.761719 L 19.839844 21.761719 L 19.839844 23.679688 L 24.960938 23.679688 L 24.960938 18.558594 L 19.839844 18.558594 L 19.839844 20.480469 L 12.800781 20.480469 L 12.800781 14.71875 L 19.839844 14.71875 L 19.839844 16.640625 L 24.960938 16.640625 L 24.960938 11.519531 L 19.839844 11.519531 L 19.839844 13.441406 L 12.800781 13.441406 L 12.800781 11.484375 C 15.675781 11.164062 17.921875 8.71875 17.921875 5.761719 C 17.917969 2.582031 15.339844 0.00390625 12.160156 0 M 10.238281 3.199219 C 10.402344 3.199219 10.566406 3.261719 10.691406 3.386719 L 12.160156 4.855469 L 13.628906 3.386719 C 13.878906 3.136719 14.28125 3.136719 14.53125 3.386719 C 14.78125 3.636719 14.78125 4.042969 14.53125 4.292969 L 13.066406 5.761719 L 14.53125 7.226562 C 14.714844 7.410156 14.769531 7.6875 14.667969 7.925781 C 14.585938 8.121094 14.414062 8.265625 14.203125 8.308594 C 13.996094 8.347656 13.777344 8.285156 13.628906 8.132812 L 12.160156 6.664062 L 10.691406 8.132812 C 10.570312 8.253906 10.40625 8.320312 10.238281 8.320312 C 9.980469 8.316406 9.75 8.160156 9.652344 7.921875 C 9.554688 7.683594 9.609375 7.410156 9.789062 7.226562 L 11.253906 5.761719 L 9.789062 4.292969 C 9.605469 4.109375 9.550781 3.835938 9.648438 3.597656 C 9.746094 3.355469 9.980469 3.199219 10.238281 3.199219 M 21.121094 12.800781 L 23.679688 12.800781 L 23.679688 15.359375 L 21.121094 15.359375 Z M 21.121094 19.839844 L 23.679688 19.839844 L 23.679688 22.398438 L 21.121094 22.398438 Z M 21.121094 26.878906 L 23.679688 26.878906 L 23.679688 29.441406 L 21.121094 29.441406 Z M 21.121094 26.878906 "/>
</svg>

<svg role="img" viewBox="0 0 32 32" xmlns="http://www.w3.org/2000/svg"><path d="M12.16 0a5.77 5.77 0 0 0-5.762 5.762c0 2.957 2.247 5.402 5.122 5.722v17.317h8.32v1.918h5.12v-5.117h-5.12v1.918H12.8v-5.758h7.04v1.918h5.12v-5.121h-5.12v1.921H12.8v-5.76h7.04v1.922h5.12V11.52h-5.12v1.921H12.8v-1.957c2.876-.32 5.122-2.765 5.122-5.722A5.77 5.77 0 0 0 12.16 0m-1.922 3.2c.164 0 .328.062.453.187l1.47 1.468 1.468-1.468c.25-.25.652-.25.902 0s.25.656 0 .906l-1.465 1.469 1.465 1.465a.643.643 0 0 1-.328 1.082.64.64 0 0 1-.574-.176L12.16 6.664l-1.469 1.469a.64.64 0 0 1-.453.187.643.643 0 0 1-.449-1.093l1.465-1.465-1.465-1.469a.64.64 0 0 1 .45-1.094m10.882 9.602h2.559v2.558h-2.56Zm0 7.039h2.559v2.558h-2.56Zm0 7.039h2.559v2.562h-2.56Zm0 0" fill="rgb(0%, 0%, 0%)"/></svg>
